creative/fonts/lekuta.svg

<?xml version="1.0" encoding="UTF-8" standalone="no"?>
<svg width="500" height="850" version="1.1" id="svg5" sodipodi:docname="lekuta.svg" inkscape:version="1.4.3 (0d15f750, 2025-12-25)" xmlns:inkscape="http://www.inkscape.org/namespaces/inkscape" xmlns:sodipodi="http://sodipodi.sourceforge.net/DTD/sodipodi-0.dtd" xmlns="http://www.w3.org/2000/svg" xmlns:svg="http://www.w3.org/2000/svg">
    <defs id="defs5" />
    <sodipodi:namedview id="namedview5" pagecolor="#ffffff" bordercolor="#000000" borderopacity="0.25" inkscape:showpageshadow="2" inkscape:pageopacity="0.0" inkscape:pagecheckerboard="0" inkscape:deskcolor="#d1d1d1" inkscape:zoom="0.3484399" inkscape:cx="261.16412" inkscape:cy="424.75044" inkscape:window-width="1095" inkscape:window-height="723" inkscape:window-x="0" inkscape:window-y="25" inkscape:window-maximized="0" inkscape:current-layer="svg5" />
    <path id="path5" style="fill:none;stroke:#ff0000" d="m 25,200 v 50 l 400,400 h 50 V 600 L 75,200 Z m 400,0 h 50 v 50 L 75,650 H 25 V 600 Z M 25,400 v 50 h 450 v -50 z m 0,-200 v 50 350 50 h 400 50 V 600 250 200 h -50 z m 50,50 H 425 V 600 H 75 Z m 50,50 v 50 200 h 50 200 V 500 350 300 H 325 175 Z m 50,50 H 325 V 500 H 175 Z" />
</svg>

<svg width="500" height="850" xmlns="http://www.w3.org/2000/svg">
    <path
        d="M 125 300 L 125 350 L 125 550 L 175 550 L 375 550 L 375 500 L 375 350 L 375 300 L 325 300 L 175 300 L 125 300 z M 175 350 L 325 350 L 325 500 L 175 500 L 175 350 z " />
    <path
        d="M 25 200 L 25 250 L 25 600 L 25 650 L 425 650 L 475 650 L 475 600 L 475 250 L 475 200 L 425 200 L 25 200 z M 75 250 L 425 250 L 425 600 L 75 600 L 75 250 z " />
    <path d="M 25 400 L 25 450 L 475 450 L 475 400 L 25 400 z " />
    <path d="m 425,200 h 50 v 50 L 75,650 H 25 v -50 z" />
    <path d="M 25 200 L 25 250 L 425 650 L 475 650 L 475 600 L 75 200 L 25 200 z " />
</svg>
